Gear_green.svg

<?xml version="1.0" encoding="UTF-8" standalone="no"?>
<!-- Created with Inkscape (http://www.inkscape.org/) -->

<svg
   xmlns:dc="http://purl.org/dc/elements/1.1/"
   xmlns:cc="http://creativecommons.org/ns#"
   xmlns:rdf="http://www.w3.org/1999/02/22-rdf-syntax-ns#"
   xmlns:svg="http://www.w3.org/2000/svg"
   xmlns="http://www.w3.org/2000/svg"
   xmlns:sodipodi="http://sodipodi.sourceforge.net/DTD/sodipodi-0.dtd"
   xmlns:inkscape="http://www.inkscape.org/namespaces/inkscape"
   width="121.00002"
   height="120.99999"
   id="svg2319"
   sodipodi:version="0.32"
   inkscape:version="0.48.2 r9819"
   sodipodi:modified="true"
   version="1.0"
   sodipodi:docname="Gear.svg"
   inkscape:output_extension="org.inkscape.output.svg.inkscape">
  <title
     id="title2822">Gear</title>
  <defs
     id="defs2321">
    <inkscape:perspective
       sodipodi:type="inkscape:persp3d"
       inkscape:vp_x="0 : 86.450211 : 1"
       inkscape:vp_y="0 : 1000 : 0"
       inkscape:vp_z="213.13271 : 86.450211 : 1"
       inkscape:persp3d-origin="106.56635 : 57.633474 : 1"
       id="perspective111" />
    <inkscape:perspective
       id="perspective2548"
       inkscape:persp3d-origin="231.5 : 154.33333 : 1"
       inkscape:vp_z="463 : 231.5 : 1"
       inkscape:vp_y="0 : 1000 : 0"
       inkscape:vp_x="0 : 231.5 : 1"
       sodipodi:type="inkscape:persp3d" />
  </defs>
  <sodipodi:namedview
     id="base"
     pagecolor="#ffffff"
     bordercolor="#666666"
     borderopacity="1.0"
     gridtolerance="10000"
     guidetolerance="10"
     objecttolerance="10"
     inkscape:pageopacity="0.0"
     inkscape:pageshadow="2"
     inkscape:zoom="3.3289966"
     inkscape:cx="10.705943"
     inkscape:cy="64.7144"
     inkscape:document-units="px"
     inkscape:current-layer="Capa_x0020_1"
     inkscape:showpageshadow="false"
     inkscape:window-width="1920"
     inkscape:window-height="1138"
     inkscape:window-x="1912"
     inkscape:window-y="-8"
     showgrid="false"
     showguides="true"
     inkscape:guide-bbox="true"
     inkscape:window-maximized="1"
     inkscape:snap-center="true" />
  <g
     inkscape:label="Layer 1"
     inkscape:groupmode="layer"
     id="layer1"
     transform="translate(-153.03491,-268.95006)">
    <g
       style="fill-rule:evenodd"
       id="Capa_x0020_1"
       transform="matrix(39.803439,0,0,39.803439,63.558407,116.51139)">
      <metadata
         id="CorelCorpID_0Corel-Layer" />
      <path
         style="fill:#067a6b;stroke:#dededd;stroke-width:0.05735795000000000;fill-opacity:1"
         d="M 74.03125 0.0625 L 66.40625 13.4375 C 64.458027 13.18435 62.453863 13.0625 60.4375 13.0625 C 58.157452 13.0625 55.910407 13.208842 53.71875 13.53125 L 45.25 0.46875 C 40.929782 1.5982482 36.796073 3.2066424 32.90625 5.21875 L 35.5625 20.40625 C 31.987729 22.721994 28.74902 25.526363 25.9375 28.71875 L 11.125 24.21875 C 8.5756853 27.828265 6.3906331 31.710374 4.65625 35.84375 L 16.34375 45.75 C 15.103156 49.752737 14.403845 53.989338 14.28125 58.375 L 0.0625 64.5625 C 0.41394048 69.089254 1.2581808 73.490673 2.53125 77.6875 L 17.78125 77.65625 C 19.424527 81.639611 21.603744 85.352847 24.21875 88.6875 L 17.28125 102.65625 C 20.372138 105.83041 23.788656 108.65835 27.5 111.09375 L 39.1875 101.1875 C 42.900715 103.13701 46.907436 104.59489 51.125 105.46875 L 54.6875 120.65625 C 56.586339 120.83775 58.491749 120.9375 60.4375 120.9375 C 62.956636 120.9375 65.436562 120.77086 67.875 120.46875 L 70.53125 105.28125 C 74.730035 104.33647 78.692656 102.82593 82.375 100.8125 L 94.78125 110.15625 C 98.421816 107.61874 101.77683 104.6989 104.78125 101.4375 L 97.125 88.0625 C 99.683704 84.685692 101.82868 80.950917 103.40625 76.9375 L 118.84375 76.0625 C 119.99857 71.835462 120.70982 67.415756 120.9375 62.875 L 106.59375 57.59375 C 106.39943 53.214799 105.58967 49.015184 104.28125 45.03125 L 115.5625 34.3125 C 113.71535 30.232715 111.43077 26.383112 108.78125 22.84375 L 94.4375 28.125 C 91.57502 24.981941 88.301851 22.256059 84.6875 20 L 86.5 4.46875 C 82.55936 2.5688164 78.385679 1.0704425 74.03125 0.0625 z M 60.5 52.6875 C 64.813221 52.6875 68.3125 56.186779 68.3125 60.5 C 68.3125 64.813221 64.813221 68.3125 60.5 68.3125 C 56.186779 68.3125 52.6875 64.813221 52.6875 60.5 C 52.6875 56.186779 56.186779 52.6875 60.5 52.6875 z "
         transform="matrix(0.02512346,0,0,0.02512346,2.2479591,3.8297864)"
         id="path83" />
      <g
         id="_67409208" />
    </g>
  </g>
  <metadata
     id="metadata3227">
    <rdf:RDF>
      <cc:Work>
        <dc:format>image/svg+xml</dc:format>
        <dc:type
           rdf:resource="http://purl.org/dc/dcmitype/StillImage" />
        <cc:license
           rdf:resource="http://creativecommons.org/licenses/publicdomain/" />
        <dc:publisher>
          <cc:Agent
             rdf:about="http://openclipart.org/">
            <dc:title>Openclipart</dc:title>
          </cc:Agent>
        </dc:publisher>
        <dc:title>Gear</dc:title>
        <dc:date>2014-03-05T09:46:58</dc:date>
        <dc:description>a simple grey gear</dc:description>
        <dc:source>https://openclipart.org/detail/191594/simple-gear-by-tavin-191594</dc:source>
        <dc:creator>
          <cc:Agent>
            <dc:title>Tavin</dc:title>
          </cc:Agent>
        </dc:creator>
        <dc:subject>
          <rdf:Bag>
            <rdf:li>gear</rdf:li>
            <rdf:li>machine</rdf:li>
            <rdf:li>outline</rdf:li>
            <rdf:li>zahnrad</rdf:li>
          </rdf:Bag>
        </dc:subject>
      </cc:Work>
      <cc:License
         rdf:about="http://creativecommons.org/licenses/publicdomain/">
        <cc:permits
           rdf:resource="http://creativecommons.org/ns#Reproduction" />
        <cc:permits
           rdf:resource="http://creativecommons.org/ns#Distribution" />
        <cc:permits
           rdf:resource="http://creativecommons.org/ns#DerivativeWorks" />
      </cc:License>
    </rdf:RDF>
  </metadata>
</svg>

<?xml version="1.0" encoding="UTF-8" standalone="no"?>
<!-- Created with Inkscape (http://www.inkscape.org/) -->
<svg id="svg2319" xmlns:rdf="http://www.w3.org/1999/02/22-rdf-syntax-ns#" xmlns="http://www.w3.org/2000/svg" viewBox="0 0 121 121" version="1.0" xmlns:cc="http://creativecommons.org/ns#" xmlns:dc="http://purl.org/dc/elements/1.1/">
 <title id="title2822">Gear</title>
 <defs id="defs2321"></defs>
 <g id="layer1" transform="translate(-153.03491,-268.95006)">
  <g id="Capa_x0020_1" fill-rule="evenodd" transform="matrix(39.803439,0,0,39.803439,63.558407,116.51139)">
   <path id="path83" d="M74.031,0.0625l-7.625,13.376c-1.948-0.254-3.952-0.376-5.968-0.376-2.281,0-4.528,0.147-6.719,0.469l-8.469-13.062c-4.32,1.1294-8.454,2.7378-12.344,4.75l2.656,15.187c-3.574,2.316-6.813,5.12-9.624,8.313l-14.813-4.5c-2.5493,3.609-4.7344,7.491-6.4688,11.625l11.688,9.906c-1.241,4.003-1.94,8.239-2.063,12.625l-14.218,6.187c0.35144,4.527,1.1957,8.929,2.4687,13.126l15.25-0.032c1.644,3.984,3.823,7.697,6.438,11.032l-6.938,13.972c3.091,3.17,6.508,6,10.219,8.43l11.688-9.9c3.713,1.95,7.719,3.4,11.937,4.28l3.563,15.19c1.898,0.18,3.804,0.28,5.75,0.28,2.519,0,4.999-0.17,7.437-0.47l2.656-15.19c4.199-0.94,8.162-2.45,11.844-4.47l12.406,9.35c3.641-2.54,6.999-5.46,9.999-8.72l-7.655-13.378c2.559-3.376,4.705-7.111,6.285-11.124l15.43-0.876c1.16-4.227,1.87-8.646,2.1-13.187l-14.35-5.281c-0.19-4.379-1-8.579-2.31-12.563l11.28-10.719c-1.84-4.079-4.13-7.929-6.78-11.468l-14.342,5.281c-2.863-3.143-6.136-5.869-9.75-8.125l1.812-15.531c-3.941-1.9-8.114-3.3984-12.469-4.4063zm-13.531,52.626c4.313,0,7.812,3.499,7.812,7.812s-3.499,7.812-7.812,7.812-7.812-3.499-7.812-7.812,3.499-7.812,7.812-7.812z" transform="matrix(0.02512346,0,0,0.02512346,2.2479591,3.8297864)" stroke="#dededd" stroke-width="0.05735795000000000" fill="#067a6b"/>
  </g>
 </g>
 <metadata id="metadata3227">
  <rdf:RDF>
   <cc:Work>
    <dc:format>image/svg+xml</dc:format>
    <dc:type rdf:resource="http://purl.org/dc/dcmitype/StillImage"/>
    <cc:license rdf:resource="http://creativecommons.org/licenses/publicdomain/"/>
    <dc:publisher>
     <cc:Agent rdf:about="http://openclipart.org/">
      <dc:title>Openclipart</dc:title>
     </cc:Agent>
    </dc:publisher>
    <dc:title>Gear</dc:title>
    <dc:date>2014-03-05T09:46:58</dc:date>
    <dc:description>a simple grey gear</dc:description>
    <dc:source>https://openclipart.org/detail/191594/simple-gear-by-tavin-191594</dc:source>
    <dc:creator>
     <cc:Agent>
      <dc:title>Tavin</dc:title>
     </cc:Agent>
    </dc:creator>
    <dc:subject>
     <rdf:Bag>
      <rdf:li>gear</rdf:li>
      <rdf:li>machine</rdf:li>
      <rdf:li>outline</rdf:li>
      <rdf:li>zahnrad</rdf:li>
     </rdf:Bag>
    </dc:subject>
   </cc:Work>
   <cc:License rdf:about="http://creativecommons.org/licenses/publicdomain/">
    <cc:permits rdf:resource="http://creativecommons.org/ns#Reproduction"/>
    <cc:permits rdf:resource="http://creativecommons.org/ns#Distribution"/>
    <cc:permits rdf:resource="http://creativecommons.org/ns#DerivativeWorks"/>
   </cc:License>
  </rdf:RDF>
 </metadata>
</svg>
